public/images/Vector.svg

<svg width="31" height="39" viewBox="0 0 31 39" fill="none" xmlns="http://www.w3.org/2000/svg">
<path d="M15.5 0C17.3944 0 18.9444 1.755 18.9444 3.9C18.9444 6.045 17.3944 7.8 15.5 7.8C13.6056 7.8 12.0556 6.045 12.0556 3.9C12.0556 1.755 13.6056 0 15.5 0ZM31 13.65H20.6667V39H17.2222V27.3H13.7778V39H10.3333V13.65H0V9.75H31V13.65Z" fill="url(#paint0_linear_4:29)"/>
<defs>
<linearGradient id="paint0_linear_4:29" x1="15.5" y1="0" x2="15.5" y2="39" gradientUnits="userSpaceOnUse">
<stop stop-color="#FCAF45"/>
<stop offset="0.197917" stop-color="#FCAF45"/>
<stop offset="0.255208" stop-color="#2BDE73"/>
<stop offset="0.505208" stop-color="#405DE6"/>
<stop offset="0.572817" stop-color="#5851DB"/>
<stop offset="0.572917" stop-color="#FCAF45"/>
<stop offset="0.614583" stop-color="#F15394"/>
<stop offset="0.973958" stop-color="#EF468C"/>
<stop offset="1"/>
</linearGradient>
</defs>
</svg>

<svg fill="none" height="39" width="31" xmlns="http://www.w3.org/2000/svg"><linearGradient id="a" gradientUnits="userSpaceOnUse" x1="15.5" x2="15.5" y2="39"><stop offset="0" stop-color="#fcaf45"/><stop offset=".198" stop-color="#fcaf45"/><stop offset=".255" stop-color="#2bde73"/><stop offset=".505" stop-color="#405de6"/><stop offset=".573" stop-color="#5851db"/><stop offset=".573" stop-color="#fcaf45"/><stop offset=".615" stop-color="#f15394"/><stop offset=".974" stop-color="#ef468c"/><stop offset="1"/></linearGradient><path d="M15.5 0c1.894 0 3.444 1.755 3.444 3.9s-1.55 3.9-3.444 3.9-3.444-1.755-3.444-3.9S13.606 0 15.5 0zM31 13.65H20.667V39h-3.445V27.3h-3.444V39h-3.445V13.65H0v-3.9h31z" fill="url(#a)"/></svg>
